Newaita/actions/32/preferences-activities.svg

<svg height="32" viewBox="0 0 32 32" width="32" xmlns="http://www.w3.org/2000/svg"><g fill="#424242"><path d="m25.800781 12.820312c-1.832031 0-3.308593 1.472657-3.308593 3.304688s1.476562 3.308594 3.308593 3.308594 3.304688-1.476563 3.304688-3.308594-1.472657-3.304688-3.304688-3.304688zm0 1.320313c1.097657 0 1.984375.886719 1.984375 1.984375 0 1.101562-.886718 1.984375-1.984375 1.984375-1.101562 0-1.984375-.882813-1.984375-1.984375 0-1.097656.882813-1.984375 1.984375-1.984375zm0 0"/><path d="m15.875 12.820312c-1.832031 0-3.304688 1.472657-3.304688 3.304688s1.472657 3.308594 3.304688 3.308594 3.308594-1.476563 3.308594-3.308594-1.476563-3.304688-3.308594-3.304688zm0 0"/><path d="m5.953125 12.820312c-1.832031 0-3.308594 1.472657-3.308594 3.304688s1.476563 3.308594 3.308594 3.308594 3.308594-1.476563 3.308594-3.308594-1.476563-3.304688-3.308594-3.304688zm0 1.320313c1.101563 0 1.984375.886719 1.984375 1.984375 0 1.101562-.882812 1.984375-1.984375 1.984375-1.097656 0-1.984375-.882813-1.984375-1.984375 0-1.097656.886719-1.984375 1.984375-1.984375zm0 0"/></g></svg>

<?xml version="1.0" encoding="UTF-8"?>
<svg xmlns="http://www.w3.org/2000/svg" xmlns:xlink="http://www.w3.org/1999/xlink" width="32px" height="32px" viewBox="0 0 32 32" version="1.1">
<g id="surface1">
<path style=" stroke:none;fill-rule:nonzero;fill:rgb(25.882354%,25.882354%,25.882354%);fill-opacity:1;" d="M 25.800781 12.820312 C 23.96875 12.820312 22.492188 14.292969 22.492188 16.125 C 22.492188 17.957031 23.96875 19.433594 25.800781 19.433594 C 27.632812 19.433594 29.105469 17.957031 29.105469 16.125 C 29.105469 14.292969 27.632812 12.820312 25.800781 12.820312 Z M 25.800781 14.140625 C 26.898438 14.140625 27.785156 15.027344 27.785156 16.125 C 27.785156 17.226562 26.898438 18.109375 25.800781 18.109375 C 24.699219 18.109375 23.816406 17.226562 23.816406 16.125 C 23.816406 15.027344 24.699219 14.140625 25.800781 14.140625 Z M 25.800781 14.140625 "/>
<path style=" stroke:none;fill-rule:nonzero;fill:rgb(25.882354%,25.882354%,25.882354%);fill-opacity:1;" d="M 15.875 12.820312 C 14.042969 12.820312 12.570312 14.292969 12.570312 16.125 C 12.570312 17.957031 14.042969 19.433594 15.875 19.433594 C 17.707031 19.433594 19.183594 17.957031 19.183594 16.125 C 19.183594 14.292969 17.707031 12.820312 15.875 12.820312 Z M 15.875 12.820312 "/>
<path style=" stroke:none;fill-rule:nonzero;fill:rgb(25.882354%,25.882354%,25.882354%);fill-opacity:1;" d="M 5.953125 12.820312 C 4.121094 12.820312 2.644531 14.292969 2.644531 16.125 C 2.644531 17.957031 4.121094 19.433594 5.953125 19.433594 C 7.785156 19.433594 9.261719 17.957031 9.261719 16.125 C 9.261719 14.292969 7.785156 12.820312 5.953125 12.820312 Z M 5.953125 14.140625 C 7.054688 14.140625 7.9375 15.027344 7.9375 16.125 C 7.9375 17.226562 7.054688 18.109375 5.953125 18.109375 C 4.855469 18.109375 3.96875 17.226562 3.96875 16.125 C 3.96875 15.027344 4.855469 14.140625 5.953125 14.140625 Z M 5.953125 14.140625 "/>
</g>
</svg>
